X:43
T:La belle Catharine or the Wedding day
O:No 43 Wm Clarke of Feltwell   MS 1858
N:Bottom of page
N:As written
I:abc2nwc
M:2/4
L:1/16
K:D
A2|d4fede|fddc|B4efed|cAAA|d4fede|fddc|B2e2 dcBA|d4D2:|
|:AG|F2A2A2G2|F2A2A2G2|F2A2 dfed|cAAG|
FGAB A2G2|F2A2 A2Bc|d3e2 {f}f2e2d2|a4A4|d4fede|
fddc|B4efed|c2A2A2A2|d4fede|fddc|B2e2 dcBA|d4D4|]

